X:1
T:Welcome for Me
T:Welcome for Me
T:William James Kirkpatrick
T:Frances Jane (Fanny) Crosby, 1886
T:Public Domain Courtesy of the Cyber Hymnal™
T:Public Domain Courtesy of the Cyber Hymnal™
C:William James Kirkpatrick
Z:Public Domain
Z:Courtesy of the Cyber Hymnal™
%%score 1 2
L:1/8
Q:1/4=110
M:6/4
K:Bb
V:1 treble 
V:2 bass 
V:1
 [DF]>[CE] | [B,D]2 [DF]2 [DB]2 [Fd]4 [Ec]>[FB] | [Ec]2 [GB]2 [EG]2 [GB]4 [EG]>[EG] | %3
w: 1.~Like a|bird on the deep, far a-|way from its nest, I had|
w: 2.~I am|safe in the ark; I have|fold- ed my wings On the|
w: 3.~I am|safe in the ark, and I|dread not the storm, Though a-|
 [DF]2 [B,D]2 [DF]2 [FB]2 [Fc]2 [Fd]2 | [Fc]6- [Fc]4 [DF]>[CE] | [B,D]2 [DF]2 [DB]2 | %6
w: wan- dered, my Sav- ior, from|Thee, * But Thy|dear lov- ing|
w: bo- som of mer- cy di-|vine; * I am|filled with the|
w: round me the surg- es may|roll; * I will|look to the|
 [Fd]4 [Ec]>[FB] | [Ec]2 [GB]2 [EG]2 [GB]4 [FA]>[EG] | [DF]2 [DB]2 [Fd]2 [Ec]2 [EG]2 [EA]2 | %9
w: voice called me|home to Thy breast, And I|knew there was wel- come for|
w: light, of Thy|pre- sence so bright, And the|joy that will ev- er be|
w: skies, where the|day ne- ver dies, I will|sing of the joy in my|
 [DB]6- [DB]4 ||"^Refrain" [CF]3 [DF] [EF]2 [DF]4 | [EG]3 [EA] [EB]2 [DF]4 [DF]2 | %12
w: me. *|||
w: mine. *|||
w: soul. *|||
 [DB]4 [DB][DB] [=EB]2 [EA]2 [EB]2 | [Fc]6- [Fc]4 | [Fd]2 [Ec]2 [DB]2 [DF]4 [DF]2 | %15
w: |||
w: |||
w: |||
 [Fd]3 [Ec] [DB]2 [DF]4 [DF]2 | [EG]3 [EA] [FB]2 [=Ec]2 [EG]2 [_EA]2 | [DB]6- [DB]4 |] %18
w: |||
w: |||
w: |||
V:2
 [B,,F,]>[B,,F,] | [B,,F,]2 [B,,B,]2 [B,,F,]2 [B,,B,]4 [C,A,]>[D,B,] | %2
w: ~ ~|~ ~ ~ ~ ~ ~|
 [E,G,]2 [E,B,]2 [E,B,]2 [E,B,]4 [E,B,]>[E,B,] | %3
w: ~ ~ ~ ~ ~ ~|
 [B,,B,]2 [B,,F,]2 [B,,B,]2 [D,B,]2 [C,A,]2 [B,,B,]2 | [F,A,]6- [F,A,]4 [F,,F,]>[F,,F,] | %5
w: ~ ~ ~ ~ ~ ~|~ * ~ ~|
 [B,,F,]2 [B,,B,]2 [B,,F,]2 | [B,,B,]4 [C,A,]>[D,B,] | %7
w: ~ ~ ~|~ ~ ~|
 [E,G,]2 [E,B,]2 [E,B,]2 [E,B,]4 [E,B,]>[E,B,] | [F,B,]2 [D,F,]2 [B,,B,]2 [E,G,]2 [E,C]2 [F,C]2 | %9
w: ~ ~ ~ ~ ~ ~|~ ~ ~ ~ ~ ~|
 [B,,B,]6- [B,,B,]4 || [F,A,]3 [F,B,] [F,C]2 [B,,B,]4 | [E,B,]3 [F,B,] [G,B,]2 B,4 B,2 | %12
w: ~ *|Wel- come for me,|Sav- ior, from Thee; A|
 [G,B,]4 [G,B,][G,B,] [C,C]2 [C,C]2 [C,B,]2 | [F,A,]6- [F,A,]4 | %14
w: smile and a wel- come for|me; *|
 [B,,F,]2 [B,,F,]2 [B,,F,]2 [B,,B,]4 [B,,B,]2 | [B,,F,]3 [B,,F,] [B,,F,]2 [B,,B,]4 [B,,B,]2 | %16
w: Now, like a dove, I|rest in Thy love, And|
 [E,B,]3 [E,C] [D,B,]2 [C,G,]2 [C,C]2 [F,C]2 | [B,,F,]6- [B,,F,]4 |] %18
w: find a sweet re- fuge in|Thee. *|

